projects/icons/src/tuiIconOL.svg

<svg xmlns="http://www.w3.org/2000/svg" id="tuiIconOL" viewBox="0 0 24 24" fill="none">
<path d="M8 6H21" stroke="currentColor" stroke-width="2" stroke-linecap="round" stroke-linejoin="round"/>
<path d="M3.125 5.451V7.456H4.284V4H3.253C3.219 4.219 3.126 4.377 2.976 4.474C2.826 4.571 2.595 4.621 2.284 4.621V5.451H3.125Z" fill="currentColor"/>
<path d="M4.292 10.079C4.078 9.984 3.828 9.936 3.54 9.936C3.079 9.936 2.722 10.043 2.469 10.257C2.215 10.47 2.09 10.774 2.093 11.168H3.21C3.21 11.027 3.241 10.921 3.303 10.847C3.33315 10.8109 3.37119 10.7822 3.41419 10.7631C3.45719 10.744 3.504 10.7351 3.551 10.737C3.62208 10.733 3.69194 10.7567 3.746 10.803C3.76981 10.8263 3.78836 10.8544 3.80044 10.8854C3.81251 10.9165 3.81781 10.9497 3.816 10.983C3.81536 11.0241 3.80634 11.0646 3.78948 11.1021C3.77263 11.1396 3.74831 11.1732 3.718 11.201C3.653 11.266 3.573 11.324 3.478 11.376C3.383 11.428 3.23 11.505 3.02 11.609C2.662 11.782 2.411 11.988 2.266 12.225C2.121 12.462 2.048 12.771 2.048 13.152C2.048 13.232 2.051 13.312 2.058 13.392H5.048V12.515H3.35C3.36024 12.4647 3.38372 12.4181 3.418 12.38C3.47416 12.3248 3.53946 12.2798 3.611 12.247C3.704 12.199 3.843 12.14 4.026 12.07C4.327 11.956 4.556 11.818 4.715 11.656C4.874 11.494 4.952 11.28 4.952 11.013C4.952 10.812 4.896 10.63 4.782 10.467C4.669 10.303 4.505 10.174 4.292 10.079Z" fill="currentColor"/>
<path d="M4.29 16.054C4.077 15.976 3.823 15.936 3.53 15.936C3.067 15.936 2.705 16.043 2.445 16.259C2.185 16.474 2.055 16.771 2.055 17.151H3.145C3.13844 17.0403 3.17418 16.9313 3.245 16.846C3.312 16.773 3.408 16.736 3.535 16.736C3.638 16.736 3.717 16.76 3.772 16.808C3.80007 16.8335 3.82208 16.865 3.83644 16.9001C3.8508 16.9352 3.85714 16.9731 3.855 17.011C3.85581 17.0521 3.84646 17.0928 3.8278 17.1294C3.80914 17.166 3.78173 17.1975 3.748 17.221C3.66157 17.2787 3.55875 17.3068 3.455 17.301H3.335V18.071H3.415C3.575 18.071 3.692 18.097 3.767 18.148C3.843 18.2 3.88 18.279 3.88 18.386C3.88 18.473 3.85 18.541 3.79 18.591C3.71814 18.6447 3.62957 18.6713 3.54 18.666C3.41 18.666 3.311 18.629 3.243 18.556C3.174 18.483 3.14 18.373 3.14 18.226H2C2 18.629 2.132 18.937 2.398 19.149C2.663 19.36 3.045 19.466 3.545 19.466C3.838 19.466 4.094 19.423 4.312 19.336C4.53 19.249 4.7 19.126 4.82 18.966C4.94 18.806 5 18.619 5 18.406C5.00755 18.2337 4.95526 18.0641 4.852 17.926C4.754 17.803 4.597 17.706 4.38 17.636V17.626C4.583 17.553 4.73 17.458 4.82 17.341C4.91 17.224 4.955 17.076 4.955 16.896C4.95841 16.7118 4.89759 16.5322 4.783 16.388C4.667 16.244 4.503 16.132 4.29 16.054Z" fill="currentColor"/>
<path d="M8 12H21" stroke="currentColor" stroke-width="2" stroke-linecap="round" stroke-linejoin="round"/>
<path d="M8 18H21" stroke="currentColor" stroke-width="2" stroke-linecap="round" stroke-linejoin="round"/>
</svg>

<svg xmlns="http://www.w3.org/2000/svg" id="tuiIconOL" fill="none" viewBox="0 0 24 24"><path stroke="currentColor" stroke-linecap="round" stroke-linejoin="round" stroke-width="2" d="M8 6h13"/><path fill="currentColor" d="M3.125 5.451v2.005h1.159V4H3.253c-.034.219-.127.377-.277.474-.15.097-.381.147-.692.147v.83h.841zm1.167 4.628a1.838 1.838 0 00-.752-.143c-.461 0-.818.107-1.071.321-.254.213-.379.517-.376.911H3.21c0-.141.031-.247.093-.321a.307.307 0 01.248-.11c.071-.004.14.02.195.066a.234.234 0 01.07.18.302.302 0 01-.098.218 1.047 1.047 0 01-.24.175 14.67 14.67 0 01-.458.233c-.358.173-.609.379-.754.616-.145.237-.218.546-.218.927 0 .08.003.16.01.24h2.99v-.877H3.35a.288.288 0 01.068-.135.68.68 0 01.193-.133 4.4 4.4 0 01.415-.177c.301-.114.53-.252.689-.414.159-.162.237-.376.237-.643a.93.93 0 00-.17-.546 1.14 1.14 0 00-.49-.388zm-.002 5.975a2.214 2.214 0 00-.76-.118c-.463 0-.825.107-1.085.323-.26.215-.39.512-.39.892h1.09a.437.437 0 01.1-.305c.067-.073.163-.11.29-.11.103 0 .182.024.237.072a.255.255 0 01.083.203.25.25 0 01-.107.21.48.48 0 01-.293.08h-.12v.77h.08c.16 0 .277.026.352.077.076.052.113.131.113.238 0 .087-.03.155-.09.205a.38.38 0 01-.25.075c-.13 0-.229-.037-.297-.11-.069-.073-.103-.183-.103-.33H2c0 .403.132.711.398.923.265.211.647.317 1.147.317.293 0 .549-.043.767-.13.218-.087.388-.21.508-.37s.18-.347.18-.56a.747.747 0 00-.148-.48c-.098-.123-.255-.22-.472-.29v-.01c.203-.073.35-.168.44-.285a.708.708 0 00.135-.445.793.793 0 00-.172-.508 1.101 1.101 0 00-.493-.334z"/><path stroke="currentColor" stroke-linecap="round" stroke-linejoin="round" stroke-width="2" d="M8 12h13M8 18h13"/></svg>
